packages/components/src/reaction_icon_bubble/images/love.svg

<?xml version="1.0" encoding="UTF-8"?>
<svg width="20px" height="20px" viewBox="0 0 20 20" version="1.1" xmlns="http://www.w3.org/2000/svg" xmlns:xlink="http://www.w3.org/1999/xlink">
    <title>02 Icons/Reactions/Fantastic/20x20</title>
    <g id="02-Icons/Reactions/Fantastic/20x20" stroke="none" stroke-width="1" fill="none" fill-rule="evenodd">
        <g>
            <circle id="Oval" stroke="#FFFFFF" fill="#EC5F65" fill-rule="nonzero" cx="10" cy="10" r="10.5"></circle>
            <ellipse id="Oval" fill="#FFFFFF" fill-rule="nonzero" cx="9.9165" cy="10.2626" rx="5.6222" ry="5.5477"></ellipse>
            <path d="M5.862,6.4773 C5.72004954,5.84451559 5.91832415,5.1835066 6.38511984,4.73332017 C6.85191553,4.28313373 7.51967126,4.10892698 8.1469,4.2737 C9.22481921,4.78299611 9.73280456,6.03320427 9.3156,7.15 C8.93462891,8.27103375 8.32051727,9.29865426 7.5137,10.1652 C6.31909532,10.1701858 5.13651401,9.92662704 4.0411,9.45 C2.8181,8.7681 2.275,7.674 2.6725,6.6608 C2.98357404,6.09000981 3.56728968,5.72026626 4.21626921,5.68292883 C4.86524873,5.6455914 5.48751714,5.94595163 5.862,6.4773 Z" id="Path" fill="#EC5F65" fill-rule="nonzero"></path>
            <path d="M14.138,6.4773 C14.2799505,5.84451559 14.0816759,5.1835066 13.6148802,4.73332017 C13.1480845,4.28313373 12.4803287,4.10892698 11.8531,4.2737 C10.7751808,4.78299611 10.2671954,6.03320427 10.6844,7.15 C11.0653711,8.27103375 11.6794827,9.29865426 12.4863,10.1652 C13.6809047,10.1701858 14.863486,9.92662704 15.9589,9.45 C17.1819,8.7681 17.725,7.674 17.3275,6.6608 C17.016426,6.09000981 16.4327103,5.72026626 15.7837308,5.68292883 C15.1347513,5.6455914 14.5124829,5.94595163 14.138,6.4773 Z" id="Path" fill="#EC5F65" fill-rule="nonzero"></path>
            <path d="M11.9677,11.8449 C11.6525095,12.7146862 10.8410156,13.3061764 9.9165,13.34 C8.99200974,13.3061923 8.18052296,12.7147469 7.8653,11.845 L11.9677,11.8449 Z" id="Path" fill="#EC5F65" fill-rule="nonzero"></path>
            <path d="M5.862,6.4773 C5.72004954,5.84451559 5.91832415,5.1835066 6.38511984,4.73332017 C6.85191553,4.28313373 7.51967126,4.10892698 8.1469,4.2737 C9.22481921,4.78299611 9.73280456,6.03320427 9.3156,7.15 C8.93462891,8.27103375 8.32051727,9.29865426 7.5137,10.1652 C6.31909532,10.1701858 5.13651401,9.92662704 4.0411,9.45 C2.8181,8.7681 2.275,7.674 2.6725,6.6608 C2.98357404,6.09000981 3.56728968,5.72026626 4.21626921,5.68292883 C4.86524873,5.6455914 5.48751714,5.94595163 5.862,6.4773 Z" id="Path" stroke="#FFFFFF" stroke-width="0.75" stroke-linejoin="round"></path>
            <path d="M14.138,6.4773 C14.2799505,5.84451559 14.0816759,5.1835066 13.6148802,4.73332017 C13.1480845,4.28313373 12.4803287,4.10892698 11.8531,4.2737 C10.7751808,4.78299611 10.2671954,6.03320427 10.6844,7.15 C11.0653711,8.27103375 11.6794827,9.29865426 12.4863,10.1652 C13.6809047,10.1701858 14.863486,9.92662704 15.9589,9.45 C17.1819,8.7681 17.725,7.674 17.3275,6.6608 C17.016426,6.09000981 16.4327103,5.72026626 15.7837308,5.68292883 C15.1347513,5.6455914 14.5124829,5.94595163 14.138,6.4773 Z" id="Path" stroke="#FFFFFF" stroke-width="0.75" stroke-linejoin="round"></path>
            <path d="M15.505,9.6515 C15.6799193,11.2325059 15.1679232,12.8125548 14.0989963,13.9905072 C13.0300694,15.1684595 11.5070138,15.8310276 9.9165,15.81 C8.31603158,15.8310835 6.78441065,15.1600548 5.71490734,13.9692121 C4.64540402,12.7783694 4.14219942,11.1837136 4.3345,9.5947" id="Path" stroke="#FFFFFF" stroke-width="0.75" stroke-linecap="round" stroke-linejoin="round"></path>
            <path d="M8.9031,4.8048 C9.61369663,4.67769871 10.3418635,4.68543326 11.0496,4.8276" id="Path" stroke="#FFFFFF" stroke-width="0.75" stroke-linecap="round" stroke-linejoin="round"></path>
        </g>
    </g>
</svg>

<svg xmlns="http://www.w3.org/2000/svg" width="22" height="22" viewBox="0 0 22 22">
    <g fill="none" fill-rule="evenodd">
        <g>
            <g transform="translate(-169 -15) translate(170 16)">
                <circle cx="10" cy="10" r="10.5" fill="#EC5F65" fill-rule="nonzero" stroke="#FFF"/>
                <ellipse cx="9.916" cy="10.263" fill="#FFF" fill-rule="nonzero" rx="5.622" ry="5.548"/>
                <path fill="#EC5F65" fill-rule="nonzero" d="M5.862 6.477c-.142-.632.056-1.293.523-1.744.467-.45 1.135-.624 1.762-.46 1.078.51 1.586 1.76 1.169 2.877-.381 1.121-.995 2.149-1.802 3.015-1.195.005-2.377-.238-3.473-.715-1.223-.682-1.766-1.776-1.369-2.79.312-.57.895-.94 1.544-.977.65-.037 1.272.263 1.646.794zM14.138 6.477c.142-.632-.056-1.293-.523-1.744-.467-.45-1.135-.624-1.762-.46-1.078.51-1.586 1.76-1.169 2.877.381 1.121.995 2.149 1.802 3.015 1.195.005 2.377-.238 3.473-.715 1.223-.682 1.766-1.776 1.369-2.79-.312-.57-.895-.94-1.544-.977-.65-.037-1.272.263-1.646.794zM11.968 11.845c-.315.87-1.127 1.461-2.052 1.495-.924-.034-1.735-.625-2.05-1.495h4.102z"/>
                <path stroke="#FFF" stroke-linejoin="round" stroke-width=".75" d="M5.862 6.477c-.142-.632.056-1.293.523-1.744.467-.45 1.135-.624 1.762-.46 1.078.51 1.586 1.76 1.169 2.877-.381 1.121-.995 2.149-1.802 3.015-1.195.005-2.377-.238-3.473-.715-1.223-.682-1.766-1.776-1.369-2.79.312-.57.895-.94 1.544-.977.65-.037 1.272.263 1.646.794zM14.138 6.477c.142-.632-.056-1.293-.523-1.744-.467-.45-1.135-.624-1.762-.46-1.078.51-1.586 1.76-1.169 2.877.381 1.121.995 2.149 1.802 3.015 1.195.005 2.377-.238 3.473-.715 1.223-.682 1.766-1.776 1.369-2.79-.312-.57-.895-.94-1.544-.977-.65-.037-1.272.263-1.646.794z"/>
                <path stroke="#FFF" stroke-linecap="round" stroke-linejoin="round" stroke-width=".75" d="M15.505 9.652c.175 1.58-.337 3.16-1.406 4.339-1.069 1.177-2.592 1.84-4.183 1.819-1.6.021-3.132-.65-4.201-1.84-1.07-1.192-1.573-2.786-1.38-4.375M8.903 4.805c.71-.127 1.439-.12 2.147.023"/>
            </g>
        </g>
    </g>
</svg>
